Bloom-Colors/scalable/actions/bookmark-new-symbolic.svg

<svg width="16" height="16" version="1.1" xmlns="http://www.w3.org/2000/svg">
<path d="m4 0s-1 0-1 1v14l5-3 5 3v-14s0-1-1-1zm3 3h2v2h2v2h-2v2h-2v-2h-2v-2h2z" fill="#666"/>
</svg>

<svg xmlns="http://www.w3.org/2000/svg" width="16" height="16" version="1.1">
 <path style="fill:#444444" d="M 4,0 C 4,0 3,0 3,1 V 15 L 8,12 13,15 V 1 C 13,1 13,0 12,0 Z M 7,3 H 9 V 5 H 11 V 7 H 9 V 9 H 7 V 7 H 5 V 5 H 7 Z"/>
</svg>
